X: 33
T:Liverpool Hornpipe
% Nottingham Music Database
S:KCC p22
M:4/4
L:1/8
R:Hornpipe
K:D
P:A
AG|"D"FDFA dfaf|"G"gfec "A"dcBA|"G"G2BG "D"F2AF|"Em"EDEF "A7"GBAG|
"D"FDFA dfaf|"G"gfec "A"dcBA|"D"dfaf "A7"bgec|"D"d2d2 d2:|
P:B
(3ABc|"D"d2fd "A"c2ec|"G"BABc dcBA|"G"G2BG "D"F2AF|"Em"EDEF "A7"GBAG|
"D"FDFA dfaf|"G"gfec "A"dcBA|"D"dfaf "A7"bgec|"D"d2d2 d2|<end>
<start>
